X: 283
M: C|
L: 1/8
K: Em
V: 1
f | gef^d eBGB | cABG FdDF | ~E>FGA B^def | gef^d e2e |]
V: 2 clef=bass middle=d
z | e2e2 e2e2 | d2d2 d2d2 | e2e2 e2e2 | B2B2 e2e :|
z | e2e2 e2g2 | d2d2 d2d2 | e2e2 e2e2 | B2B2 e2e ||
z | e2^d2 e2e2 | d2d2 d2d2 | e2e2 e2e2 | B2B2 e2e |]


